X: 541
%
U:~=!turn!
T: Pease Strae
C:
O:Scotland
B:Keith Norman MacDonald : "The Skye collection of the best reels & strathspeys extant" : 1887
Z:Ralph Palmer
R:Reel
M:C
L:1/8
K:D
A | (de)fd (ge)fd | eA A/A/A (=c3 e) | (de)fd (ge)fd | egfe d2 d :|
(f/g/) | afdf afdf | eA A/A/A (=c3 e) | afdf afdf | egfe d2 (fg) |
afdf afdf | eA A/A/A (=c3 f) | afge fde^c | Agfe d2 d |]


